svg/emoji_u1f4f5.svg

<?xml version="1.0" encoding="UTF-8"?>
<svg width="128" height="128" enable-background="new 0 0 128 128" xmlns="http://www.w3.org/2000/svg"><linearGradient id="b" x1="64" x2="64" y1="4.8333" y2="122.83" gradientUnits="userSpaceOnUse"><stop stop-color="#616161" offset="0"/><stop stop-color="#515151" offset=".3054"/><stop stop-color="#292929" offset=".8963"/><stop stop-color="#212121" offset="1"/></linearGradient><circle cx="64" cy="64" r="59" fill="url(#b)"/><g opacity=".2"><path d="m63.87 26c10.77 0 15.97 1.59 17.93 2.1 1.33 0.32 2.34 1.64 2.34 2.97v65.87c0 1.33-1.01 2.65-2.34 2.97-1.96 0.51-7.17 2.1-17.93 2.1s-16.86-1.78-17.93-2.1c-1.33-0.32-2.34-1.64-2.34-2.97v-65.87c0-1.33 1.01-2.65 2.34-2.97 1.07-0.32 7.16-2.1 17.93-2.1m-13.96 6.52c0.56 0 1.01-0.45 1.01-1.01s-0.45-1.01-1.01-1.01-1.01 0.45-1.01 1.01c0 0.55 0.45 1.01 1.01 1.01m6.88 0.04h14.19c0.56 0 1.01-0.46 1.01-1.01 0-0.56-0.46-1.01-1.01-1.01h-14.19c-0.56 0-1.01 0.46-1.01 1.01s0.46 1.01 1.01 1.01m-8.13 59.86h30.41c0.56 0 1.01-0.45 1.01-1.01v-54.82c0-0.56-0.45-1.01-1.01-1.01h-30.41c-0.56 0-1.01 0.45-1.01 1.01v54.82c0 0.56 0.45 1.01 1.01 1.01m8.13 4.96h14.19c0.56 0 1.01-0.46 1.01-1.01 0-0.56-0.46-1.01-1.01-1.01h-14.19c-0.56 0-1.01 0.46-1.01 1.01s0.46 1.01 1.01 1.01m7.08-74.38c-9.7 0-15.87 1.37-18.72 2.2-2.6 0.66-4.55 3.17-4.55 5.87v65.87c0 2.7 1.95 5.2 4.55 5.87 2.85 0.83 9.02 2.2 18.72 2.2 10.43 0 15.91-1.46 18.26-2.08l0.41-0.11c2.63-0.65 4.6-3.17 4.6-5.88v-65.87c0-2.71-1.98-5.23-4.6-5.88l-0.41-0.11c-2.35-0.62-7.84-2.08-18.26-2.08zm-13.22 15.58h26.43v50.85h-26.43v-50.85z" fill="#424242"/></g><path d="m81.8 28.1c-1.96-0.51-7.17-2.1-17.93-2.1s-16.86 1.78-17.93 2.1c-1.33 0.32-2.34 1.64-2.34 2.97v65.87c0 1.33 1.01 2.65 2.34 2.97 1.08 0.32 7.17 2.1 17.93 2.1s15.97-1.59 17.93-2.1c1.33-0.32 2.34-1.64 2.34-2.97v-65.87c0-1.33-1.01-2.65-2.34-2.97zm-25.01 2.43h14.19c0.56 0 1.01 0.46 1.01 1.01 0 0.56-0.46 1.01-1.01 1.01h-14.19c-0.56 0-1.01-0.46-1.01-1.01s0.46-1.01 1.01-1.01zm-6.88-0.04c0.56 0 1.01 0.45 1.01 1.01s-0.45 1.01-1.01 1.01-1.01-0.45-1.01-1.01 0.45-1.01 1.01-1.01zm21.07 66.89h-14.19c-0.56 0-1.01-0.46-1.01-1.01 0-0.56 0.46-1.01 1.01-1.01h14.19c0.56 0 1.01 0.46 1.01 1.01 0.01 0.55-0.45 1.01-1.01 1.01zm8.09-4.96h-30.41c-0.56 0-1.01-0.45-1.01-1.01v-54.82c0-0.56 0.45-1.01 1.01-1.01h30.41c0.56 0 1.01 0.45 1.01 1.01v54.82c0 0.56-0.45 1.01-1.01 1.01z" fill="#FAFAFA"/><g opacity=".2"><path d="m64 17c25.92 0 47 21.08 47 47s-21.08 47-47 47-47-21.08-47-47 21.08-47 47-47m0-3c-27.61 0-50 22.39-50 50s22.39 50 50 50 50-22.39 50-50-22.39-50-50-50z" fill="#424242"/></g><linearGradient id="a" x1="64" x2="64" y1="4" y2="124.13" gradientUnits="userSpaceOnUse"><stop stop-color="#FF5252" offset="0"/><stop stop-color="#F33B3B" offset=".324"/><stop stop-color="#D50000" offset="1"/></linearGradient><path d="M64,4C30.86,4,4,30.86,4,64s26.86,60,60,60s60-26.86,60-60S97.14,4,64,4z M114,64 c0,11.99-4.24,23-11.3,31.62L32.38,25.3C41,18.24,52.01,14,64,14C91.57,14,114,36.43,114,64z M14,64c0-11.99,4.24-23,11.3-31.62 l70.32,70.32C87,109.76,75.99,114,64,114C36.43,114,14,91.57,14,64z" fill="url(#a)"/><g opacity=".2"><path d="M64,7c31.43,0,57,25.57,57,57s-25.57,57-57,57S7,95.43,7,64S32.57,7,64,7 M64,4 C30.86,4,4,30.86,4,64s26.86,60,60,60s60-26.86,60-60S97.14,4,64,4L64,4z" fill="#424242"/></g></svg>

<svg width="128" height="128" style="enable-background:new 0 0 128 128;" xmlns="http://www.w3.org/2000/svg" xmlns:xlink="http://www.w3.org/1999/xlink">
  <g>
    <linearGradient id="SVGID_1_" gradientUnits="userSpaceOnUse" x1="64" x2="64" y1="4.8333" y2="122.8333">
      <stop offset="0" style="stop-color:#616161"/>
      <stop offset="0.3054" style="stop-color:#515151"/>
      <stop offset="0.8963" style="stop-color:#292929"/>
      <stop offset="1" style="stop-color:#212121"/>
    </linearGradient>
    <circle cx="64" cy="64" r="59" style="fill:url(#SVGID_1_);"/>
    <g style="opacity:0.2;">
      <path d="M63.87,26c10.77,0,15.97,1.59,17.93,2.1c1.33,0.32,2.34,1.64,2.34,2.97v4v0.51v56.85v0.42v4.09 c0,1.33-1.01,2.65-2.34,2.97c-1.96,0.51-7.17,2.1-17.93,2.1s-16.86-1.78-17.93-2.1c-1.33-0.32-2.34-1.64-2.34-2.97v-4.09v-0.42 V35.58v-0.51v-4c0-1.33,1.01-2.65,2.34-2.97C47.01,27.78,53.1,26,63.87,26 M49.91,32.52c0.56,0,1.01-0.45,1.01-1.01 c0-0.56-0.45-1.01-1.01-1.01c-0.56,0-1.01,0.45-1.01,1.01C48.9,32.06,49.35,32.52,49.91,32.52 M56.79,32.56h14.19 c0.56,0,1.01-0.46,1.01-1.01c0-0.56-0.46-1.01-1.01-1.01H56.79c-0.56,0-1.01,0.46-1.01,1.01C55.78,32.1,56.24,32.56,56.79,32.56 M48.66,92.42h30.41c0.56,0,1.01-0.45,1.01-1.01V36.59c0-0.56-0.45-1.01-1.01-1.01H48.66c-0.56,0-1.01,0.45-1.01,1.01v54.82 C47.65,91.97,48.1,92.42,48.66,92.42 M56.79,97.38h14.19c0.56,0,1.01-0.46,1.01-1.01c0-0.56-0.46-1.01-1.01-1.01H56.79 c-0.56,0-1.01,0.46-1.01,1.01C55.78,96.92,56.24,97.38,56.79,97.38 M63.87,23c-9.7,0-15.87,1.37-18.72,2.2 c-2.6,0.66-4.55,3.17-4.55,5.87v4v0.51v56.85v0.42v4.09c0,2.7,1.95,5.2,4.55,5.87c2.85,0.83,9.02,2.2,18.72,2.2 c10.43,0,15.91-1.46,18.26-2.08l0.41-0.11c2.63-0.65,4.6-3.17,4.6-5.88v-4.09v-0.42V35.58v-0.51v-4c0-2.71-1.98-5.23-4.6-5.88 l-0.41-0.11C79.78,24.46,74.29,23,63.87,23L63.87,23z M50.65,38.58h26.43v50.85H50.65V38.58L50.65,38.58z" style="fill:#424242;"/>
    </g>
    <path d="M81.8,28.1c-1.96-0.51-7.17-2.1-17.93-2.1s-16.86,1.78-17.93,2.1c-1.33,0.32-2.34,1.64-2.34,2.97v4 v0.51v56.85v0.42v4.09c0,1.33,1.01,2.65,2.34,2.97c1.08,0.32,7.17,2.1,17.93,2.1s15.97-1.59,17.93-2.1 c1.33-0.32,2.34-1.64,2.34-2.97v-4.09v-0.42V35.58v-0.51v-4C84.14,29.74,83.13,28.42,81.8,28.1z M56.79,30.53h14.19 c0.56,0,1.01,0.46,1.01,1.01c0,0.56-0.46,1.01-1.01,1.01H56.79c-0.56,0-1.01-0.46-1.01-1.01C55.78,30.99,56.24,30.53,56.79,30.53z M49.91,30.49c0.56,0,1.01,0.45,1.01,1.01c0,0.56-0.45,1.01-1.01,1.01c-0.56,0-1.01-0.45-1.01-1.01 C48.9,30.94,49.35,30.49,49.91,30.49z M70.98,97.38H56.79c-0.56,0-1.01-0.46-1.01-1.01c0-0.56,0.46-1.01,1.01-1.01h14.19 c0.56,0,1.01,0.46,1.01,1.01C72,96.92,71.54,97.38,70.98,97.38z M79.07,92.42H48.66c-0.56,0-1.01-0.45-1.01-1.01V36.59 c0-0.56,0.45-1.01,1.01-1.01h30.41c0.56,0,1.01,0.45,1.01,1.01v54.82C80.08,91.97,79.63,92.42,79.07,92.42z" style="fill:#FAFAFA;"/>
    <g>
      <g style="opacity:0.2;">
        <path d="M64,17c25.92,0,47,21.08,47,47s-21.08,47-47,47S17,89.92,17,64S38.08,17,64,17 M64,14 c-27.61,0-50,22.39-50,50s22.39,50,50,50s50-22.39,50-50S91.61,14,64,14L64,14z" style="fill:#424242;"/>
      </g>
      <linearGradient id="SVGID_2_" gradientUnits="userSpaceOnUse" x1="64" x2="64" y1="4" y2="124.1303">
        <stop offset="0" style="stop-color:#FF5252"/>
        <stop offset="0.324" style="stop-color:#F33B3B"/>
        <stop offset="1" style="stop-color:#D50000"/>
      </linearGradient>
      <path d="M64,4C30.86,4,4,30.86,4,64s26.86,60,60,60s60-26.86,60-60S97.14,4,64,4z M114,64 c0,11.99-4.24,23-11.3,31.62L32.38,25.3C41,18.24,52.01,14,64,14C91.57,14,114,36.43,114,64z M14,64c0-11.99,4.24-23,11.3-31.62 l70.32,70.32C87,109.76,75.99,114,64,114C36.43,114,14,91.57,14,64z" style="fill:url(#SVGID_2_);"/>
      <g style="opacity:0.2;">
        <path d="M64,7c31.43,0,57,25.57,57,57s-25.57,57-57,57S7,95.43,7,64S32.57,7,64,7 M64,4 C30.86,4,4,30.86,4,64s26.86,60,60,60s60-26.86,60-60S97.14,4,64,4L64,4z" style="fill:#424242;"/>
      </g>
    </g>
  </g>
</svg>
